public/league-logo.svg

<svg width="100" height="100" viewBox="0 0 128 128" fill="none" xmlns="http://www.w3.org/2000/svg">
<path d="M59.9436 66.5868L48.7683 85.9798L37.5931 66.5868H59.9436ZM62.9374 64.8535H34.5872L48.7683 89.41L62.9374 64.8535Z" fill="#7E46B7"/>
<path d="M79.3731 42.4665L90.5483 61.8595H68.1978L79.3731 42.4665ZM79.3731 39L65.1919 63.5564H93.5542L79.3731 39Z" fill="#7E46B7"/>
<path d="M21 39L32.8904 60.7202L45.8837 39.5454L21 39Z" fill="#7E46B7"/>
<path d="M48.7686 40.9031L61.2408 62.5021H36.2722L48.7686 40.9031Z" fill="#7E46B7"/>
<path d="M64.4527 67.217L76.937 89.41H51.3745L64.0648 67.217H64.4527Z" fill="#7E46B7"/>
<path d="M67.1555 65.8716L79.3731 87.7251L91.7604 65.8716H67.1555Z" fill="#7E46B7"/>
</svg>

<svg width="100" height="100" viewBox="0 0 128 128" fill="none" xmlns="http://www.w3.org/2000/svg"><path d="M59.944 66.587 48.768 85.98 37.593 66.587h22.35Zm2.993-1.734h-28.35L48.768 89.41l14.17-24.556ZM79.373 42.467l11.175 19.392h-22.35l11.175-19.392Zm0-3.467L65.192 63.556h28.362L79.374 39ZM21 39l11.89 21.72 12.994-21.175L21 39ZM48.769 40.903l12.472 21.6H36.272l12.497-21.6ZM64.453 67.217 76.937 89.41H51.374l12.69-22.193h.389ZM67.156 65.872l12.217 21.853L91.76 65.872H67.155Z" fill="#7E46B7"/></svg>
